X:1
T:Contrapunctus XIII a 3. (A = 415 Hz)
T:BWV 1080 The Art of Fugue
T:J. S. Bach
%%score { 1 | 2 | 3 }
L:1/8
Q:1/4=72
M:2/4
K:E
V:1 treble nm="Harp"
V:2 alto1 
V:3 bass 
V:1
"^Adagio""^Rectus" z | z4 | z4 | z4 | z4 | z4 | z4 | z4 | z2 z c | gG- (3G/^A/B/(3A/B/c/ | %10
 (3B/c/d/c- (3c/d/e/(3d/e/f/ | (3e/d/c/d- (3d/c/B/(3c/B/^A/ | %12
 (3:2:2Bd/(3:2:2gd/ (3:2:2B^A/(3:2:2Bc/ | d2 z ^B | c(3:2:2ed/ cb | ac z ^A | B(3:2:2dc/ Ba | %17
 (3:2:2g2 f (3:2:2ed/(3:2:2ce/ | Aa fd | (6:4:3^B2 c/d/ (3:2:2Gd/(3:2:2ef/ | %20
 (3:2:2g2 f (3e/d/c/(3:2:2da/ | (3g/f/e/(3f/^B/d/ (3f/e/d/-(3:2:2de/ | %22
 (3d/e/f/(3e/c/G/ (3^A/^B/c/(3B/c/d/ | ce cG | (3:2:2Ac/(3:2:2fc/ (3:2:2AF/(3:2:2G^A/ | B=d BF | %26
 (3:2:2GB/(3:2:2eB/ (3:2:2GE/(3:2:2FG/ | Aa- (3a/=g/f/(3g/f/e/ | (3f/e/=d/e- (3e/d/c/(3d/c/B/ | %29
 Be cG | A4- | A4- | A2 z A | Ee- (3e/=d/c/(3d/c/B/ | (3c/B/A/B- (3B/A/G/(3A/G/F/ | %35
 (3G/A/B/A- (3A/B/c/(3B/c/=d/ | (3:2:2cA/(3:2:2EA/ (3:2:2c=d/(3:2:2cB/ | %37
 (3A/F/G/(3A/B/c/ (3:2:2=dc/(3:2:2Bd/ | (3c/=d/e/(3d/f/d/ (3B/^A/G/(3A/B/c/ | %39
 (3B/A/G/(3A/F/G/ (3A/B/c/(3=d/c/B/ | (3c/F/A/(3c/A/c/ (3:2:2f^e/(3:2:2fg/ | %41
 (3:2:2af/(3:2:2cf/ (3:2:2ab/(3:2:2ag/ | fd fa | (3:2:2ge/(3:2:2Be/ (3:2:2ga/(3:2:2gf/ | ec eg | %45
 fc ^B z | z/ ^B/4c/4d/4e/4f/4g/4 a z | (3z/ d/g/(3f/e/d/ (3e/d/c/(3^B/c/d/ | e z z A | %49
 (3G/F/E/(3F/G/E/ F/4E/4D/-D/E/ | D z z d | G z z G | (3:2:2Ac/(3:2:2fc/ (3:2:2AF/(3:2:2GA/ | %53
 D z z ^A | (3:2:2Bd/(3:2:2gd/ (3:2:2BG/(3:2:2AB/ | E z z B | %56
 (3:2:2ce/(3:2:2ae/ (3:2:2cA/(3:2:2Bc/ | F z z c | ^B z (3:2:2z f/(3:2:2ed/ | a2 z (3z/ a/^B/ | %60
 c-(3c/d/e/ e/4d/4e/4d/4-(3d/c/d/ | e-(3e/f/g/ g/4f/4g/4f/4-(3f/e/f/ | g4- | %63
 (3g/a/b/(3a/f/c/ (3d/^e/f/(3e/f/g/ | (3f/e/d/(3e/d/c/ d z | z2 z c | Gg- (3g/f/e/(3f/e/d/ | %67
 (3e/d/c/d- (3d/c/^B/(3c/B/^A/ | (3^B/c/d/c- (3c/d/e/(3d/e/f/ | %69
 (3:2:2ec/(3:2:2Gc/ (3:2:2ef/(3:2:2ed/ | (3c/B/A/B- (3B/A/G/(3A/B/c/ | G3 z |"^Invertus" z2 z c | %73
 Gg- (3g/f/e/(3f/e/d/ | (3e/d/c/d- (3d/c/^B/(3c/B/^A/ | (3^B/c/d/c- (3c/d/e/(3d/e/f/ | %76
 (3:2:2ec/(3:2:2Gc/ (3:2:2ef/(3:2:2ed/ | (3c/f/d/(3e/f/g/ a^B | c-(3c/d/e/ d2- | %79
 d-(3d/e/f/ (3:2:2eG/(3:2:2^A^B/ | c2- (3:2:2c^B/(3:2:2cd/ | e z z ^e | %82
 (3f/^e/d/(3e/f/d/ (3e/f/g/(3a/g/f/ | g z z ^e | fa f(3:2:2cB/ | Ac AF | Gg z2 | z d BG | Aa z2 | %89
 z4 | z4 | z2 z g | c'c- (3c/d/e/(3d/e/f/ | (3e/f/g/f- (3f/g/a/(3g/a/b/ | %94
 (3a/g/f/g- (3g/f/e/(3f/e/d/ | (3:2:2eg/(3:2:2c'g/ (3:2:2ed/(3:2:2^e=g/ | g(3:2:2fe/ d^e | %97
 (3:2:2f^a/(3:2:2d'a/ (3:2:2f^e/(3:2:2fg/ | ^a(3:2:2gf/ ^e=g | %99
 (3:2:2g^a/(3:2:2b=a/ (3:2:2gf/(3:2:2eg/ | f-(3f/g/a/ (3g/a/b/(3a/b/c'/ | (3b/B/A/(3G/A/A/ e2- | %102
 (3e/d/c/(3d/e/c/ dg | (3f/g/a/(3g/f/a/ gd | (3e/b/g/(3e/g/e/ (3:2:2Bf/(3:2:2e=d/ | %105
 (3c/B/A/(3B/A/G/ e2- | e4- | e4- | e2 z g | dd'- (3d'/c'/b/(3c'/b/^a/ | %110
 (3b/^a/g/a- (3a/g/=g/(3^g/=g/^e/ | (3=g/^g/^a/g- (3g/a/b/(3a/b/c'/ | %112
 (3:2:2bg/(3:2:2da/ (3:2:2bc'/(3:2:2b^a/ | gb g(3:2:2de/ | %114
 (3:2:2ed/(3:2:2^Ad/ (3:2:2f=a/(3:2:2gf/ | ec' a(3:2:2ef/ | (3:2:2ge/(3:2:2Be/ (3:2:2gf/(3:2:2ag/ | %117
 f2 z ^B | c z (3:2:2z E/(6:4:3FE/4D/4 | A z z f | c'c- (3c/d/e/(3d/e/f/ | %121
 (3E/D/C/D- (3D/C/^B,/(3C/B,/^A,/ | (3a/g/f/g- (3g/f/e/(3f/e/d/ | %123
 (3:2:2eg/(3:2:2c'g/ (3:2:2ed/(3:2:2^e=g/ | gB dg | (3:2:2df/(3:2:2bf/ (3:2:2dc/(3:2:2d^e/ | %126
 fA cf | (3:2:2ce/(3:2:2ae/ (3:2:2cB/(3:2:2cd/ | e2 z c | (3:2:2^Bd/(3:2:2gd/ (3:2:2B^A/(3:2:2Bc/ | %130
 d z (3:2:2z f/(3:2:2ed/ | a2 z f | (3e/d/c/(3^B/d/c/ (3=B/c/B/(3A/B/A/ | %133
 (3G/e/d/(3c/d/e/ (3f/d/c/(3^B/c/d/ | (3e/g/e/(3c/e/c/ (3G/A/B/(3A/G/F/ | G4- | G-(3G/A/B/ A z | %137
 (3z/ G/c/(3e/c/e/ (3g/e/c/(3G/A/B/ | (3A/c/f/(3a/g/f/ (3^e/f/g/(3:2:2fA/ | %139
 G-(3G/A/B/ (3A/G/F/(3^E/F/G/ | (3:2:2Fd/(3e/f/g/ ^B2 | c z (3:2:2z ^B/(3:2:2cd/ | %142
 (3^e/f/g/c- c(3d/c/^B/ | ^e3 z |] %144
V:2
 G | cC- (3C/D/E/(3D/E/F/ | (3E/F/G/F- (3F/G/A/(3G/A/B/ | (3A/G/F/G- (3G/F/E/(3F/E/D/ | %4
 (3:2:2EG/(3:2:2cG/ (3:2:2ED/(3:2:2EF/ | (3G/D/F/(3E/D/C/ ^B,A | G-(3G/F/E/ F2- | %7
 F-(3F/E/D/ (3:2:2Ec/(3:2:2BA/ | G2- (3:2:2GA/(3:2:2GF/ | E z z E | %10
 (3D/E/F/(3E/D/F/ (3E/D/C/(3^B,/C/D/ | C z z E | DB, D(3:2:2GA/ | BG Bd | cC z2 | z F Ac | BB, z2 | %17
 z4 | z4 | z2 z C | G,G- (3G/F/E/(3F/E/D/ | (3E/D/C/D- (3D/C/^B,/(3C/B,/^A,/ | %22
 (3^B,/C/D/C- (3C/D/E/(3D/E/F/ | (3:2:2EC/(3:2:2G,C/ (3:2:2EF/(3:2:2ED/ | C(3:2:2D^E/ F=E | %25
 (3:2:2=DB,/(3:2:2F,B,/ (3:2:2DE/(3:2:2DC/ | B,(3:2:2CD/ E=D | %27
 (3:2:2CB,/(3:2:2A,B,/ (3:2:2C=D/(3:2:2EC/ | =D-(3D/C/B,/ (3C/B,/A,/(3B,/A,/G,/ | %29
 (3A,/A/B/(3c/B/A/ E2- | (3E/F/=G/(3F/E/G/ FC | (3=D/C/B,/(3C/D/B,/ CF | %32
 (3E/A,/C/(3E/C/E/ (3:2:2AE/(3:2:2EF/ | (3G/A/B/(3A/B/c/ E2- | E4- | E4- | E2 z C | %37
 FF,- (3F,/G,/A,/(3G,/A,/B,/ | (3A,/B,/C/B,- (3B,/C/=D/(3C/D/E/ | %39
 (3=D/C/B,/C- (3C/B,/A,/(3B,/A,/G,/ | (3:2:2A,C/(3:2:2FC/ (3:2:2A,G,/(3:2:2A,B,/ | CA, C(3:2:2FE/ | %42
 (3:2:2DF/(3:2:2BF/ (3:2:2DB,/(3:2:2CD/ | EG, B,(3:2:2ED/ | %44
 (3:2:2CE/(3:2:2AE/ (3:2:2CD/(3:2:2^B,C/ | D2 z A | G z (3:2:2z e/(6:4:3de/4f/4 | ^B z z D | %48
 G,G- (3G/F/E/(3F/E/D/ | (3E/D/C/D- (3D/C/^B,/(3C/B,/^A,/ | (3^B,/C/D/C- (3C/D/E/(3D/E/F/ | %51
 (3:2:2EC/(3:2:2G,C/ (3:2:2EF/(3:2:2ED/ | CA FC | (3:2:2FD/(3:2:2^A,D/ (3:2:2FG/(3:2:2FE/ | DB GD | %55
 (3:2:2GE/(3:2:2B,E/ (3:2:2GA/(3:2:2GF/ | E2 z G | (3:2:2AF/(3:2:2CF/ (3:2:2AB/(3:2:2AG/ | %58
 F z (3:2:2z D/(3:2:2EF/ | ^B,2 z D | (3E/F/G/(3A/F/G/ (3^A/G/A/(3^B/A/B/ | %61
 (3c/E/F/(3G/F/E/ (3D/F/G/(3A/G/F/ | (3E/C/E/(3G/E/G/ (3c/^B/^A/(3B/c/d/ | c4- | c-(3c/^B/^A/ B z | %65
 (3z/ c/G/(3E/G/E/ (3C/E/G/(3c/^B/^A/ | (3^B/G/D/(3^B,/C/D/ (3E/D/C/(3:2:2DB/ | %67
 c-(3c/^B/^A/ (3B/c/d/(3e/d/c/ | (3:2:2dF/(3E/D/C/ B/4A/4B/4A/4B/4A/4B/4A/4 | %69
 G z (3:2:2z A/(3:2:2GF/ | (3E/D/C/G- G(3F/G/A/ | ^E3 z | z4 | z4 | z4 | z4 | z2 z G | %77
 cC- (3C/D/E/(3D/E/F/ | (3E/F/G/F- (3F/G/A/(3G/A/B/ | (3A/G/F/G- (3G/F/E/(3F/E/D/ | %80
 (3:2:2EG/(3:2:2cG/ (3:2:2ED/(3:2:2EF/ | (3G/A/B/(3A/G/F/ ^E=d | c z z C- | C(3=D/C/E/ D2 | C4- | %85
 (3:2:2CF/(3:2:2AF/ (3:2:2CB,/(3:2:2CD/ | (3:2:2EB,/(3:2:2G,B,/ (3:2:2EG/(3:2:2FE/ | %87
 (3:2:2DG/(3:2:2BA/ (3:2:2DC/(3:2:2D^E/ | (3:2:2FC/(3:2:2A,C/ (3:2:2FA/(3:2:2GF/ | %89
 (3:2:2ED/(3:2:2EF/ (3:2:2GF/(3:2:2EG/ | (3:2:2DC/(3:2:2DE/ (3:2:2FE/(3:2:2DF/ | %91
 (3:2:2C^B,/(3:2:2CD/ (3:2:2EF/(3:2:2GF/ | (3:2:2EF/(3:2:2ED/ CA | G^B, z =D | C z z C | G z z G | %96
 D z z A | ^A z z A | ^E z z ^A | D z z2 | z2 z E | B,B- (3B/A/G/(3A/G/F/ | %102
 (3G/F/E/F- (3F/E/D/(3E/D/C/ | (3D/E/F/E- (3E/F/G/(3F/G/A/ | %104
 (3:2:2GE/(3:2:2B,E/ (3:2:2GA/(3:2:2GF/ | EG (3:2:2cB/(3:2:2Ac/ | B-(3B/c/=d/ (3c/B/A/(3G/A/B/ | %107
 (3A/G/F/(3G/F/A/ (3G/A/B/(3c/B/A/ | BG EB | F z ^A z | D4- | D4- | D4- | D2 z D | ^A, z z D | %115
 E2 z E | B,2 z E | (3:2:2FD/(3:2:2^B,D/ (3:2:2FE/(3:2:2FG/ | A/F/D/F/ (3:2:2AG/(3:2:2^A^B/ | %119
 (3:2:2cA/(3:2:2FG/ (3:2:2c^B/(3:2:2cc/ | (3e/c/A/(3E/F/G/ A2 | G^B, z =D | %122
 (3:2:2CD/(3E/D/C/ (3:2:2^B,G/(3A/G/F/ | GE CG | D z z D | dD B,F | C z z C | cC A,E | B,G, B,E | %129
 D^B, DG | (3:2:2FD/(3:2:2^B,D/ (3:2:2FA/(3:2:2GF/ | d2 z D | (3E/F/G/D- (3D/^E/F/C | G z z D | %134
 G,G- (3G/F/E/(3F/E/D/ | (3E/D/C/D- (3D/C/^B,/(3C/B,/^A,/ | (3^B,/C/D/C- (3C/D/E/(3D/E/F/ | %137
 (3:2:2EC/(3:2:2G,C/ (3:2:2EF/(3:2:2ED/ | C4- | C4- | C^B, DF | (3G/c/G/(3E/G/E/ Cc | %142
 G-(3G/^E/D/ (3C/B,/A,/(3:2:2G,G/ | G3 z |] %144
V:3
 z | z4 | z4 | z4 | z2 z C, | G,,G,- (3G,/F,/E,/(3F,/E,/D,/ | %6
 (3E,/D,/C,/D,- (3D,/C,/^B,,/(3C,/B,,/^A,,/ | (3^B,,/C,/D,/C,- (3C,/D,/E,/(3D,/E,/F,/ | %8
 (3:2:2E,C,/(3:2:2G,,C,/ (3:2:2E,F,/(3:2:2E,D,/ | (3C,/^B,,/^A,,/(3B,,/C,/D,/ E,=G,, | %10
 G,, z z G,- | G,(3=G,/^G,/^E,/ =G,2 | G,4- | (3:2:2G,D,/(3:2:2B,,D,/ (3:2:2G,A,/(3:2:2G,F,/ | %14
 (3:2:2E,G,/(3:2:2CA,/ (3:2:2E,C,/(3:2:2D,^E,/ | (3:2:2F,C,/(3:2:2A,,C,/ (3:2:2F,G,/(3:2:2F,E,/ | %16
 (3:2:2D,F,/(3:2:2B,F,/ (3:2:2D,B,,/(3:2:2C,D,/ | (3:2:2E,F,/(3:2:2E,D,/ (3:2:2C,D,/(3:2:2E,C,/ | %18
 (3:2:2F,G,/(3:2:2F,E,/ (3:2:2D,E,/(3:2:2F,D,/ | (3:2:2G,A,/(3:2:2G,F,/ (3:2:2E,D,/(3:2:2C,D,/ | %20
 (3:2:2E,D,/(3:2:2E,F,/ G,^B,, | C,A, z =G, | G, z z G, | C, z z C, | F, z z C, | B,, z z B,, | %26
 E, z z B,, | F, z z2 | z2 z E, | A,A,,- (3A,,/B,,/C,/(3B,,/C,/=D,/ | %30
 (3C,/=D,/E,/D,- (3D,/E,/F,/(3E,/F,/=G,/ | (3F,/E,/=D,/E,- (3E,/D,/C,/(3D,/C,/B,,/ | %32
 (3:2:2C,E,/(3:2:2A,E,/ (3:2:2C,B,,/(3:2:2C,D,/ | E,C, (3:2:2G,,A,,/(3:2:2B,,G,,/ | %34
 A,,-(3A,,/G,,/F,,/ (3G,,/A,,/B,,/(3C,/B,,/A,,/ | %35
 (3B,,/C,/=D,/(3C,/D,/B,,/ (3C,/B,,/A,,/(3G,,/A,,/B,,/ | A,,C, E,A,, | =D, z B,, z | F,4- | F,4- | %40
 F,4- | F,2 z F, | B, z z F, | E,2 z E, | A,2 z E, | %45
 (3:2:2D,F,/(3:2:2A,F,/ (3:2:2D,E,/(3:2:2D,C,/ | ^B,,/D,/F,/D,/ (3:2:2B,,C,/(3:2:2B,,^A,,/ | %47
 (3:2:2G,,^B,,/(3:2:2D,B,,/ (3:2:2G,,A,,/(3:2:2G,,F,,/ | %48
 (3E,,/G,,/C,/(3E,/D,/C,/ (6:4:6C,/4^B,,/4C,/4B,,/4C,/4B,,/4(6:4:6C,/4B,,/4C,/4B,,/4^A,,/4B,,/4 | %49
 C,A, z =G, | (3:2:2G,F,/(3E,/F,/G,/ (3:2:2A,C,/(3^B,,/C,/D,/ | C,E, G,C, | F, z z F, | %53
 F,,F, ^A,D, | G, z z G, | G,,G, B,E, | A,C A,^E, | F,A, F,C, | %58
 (3:2:2D,F,/(3:2:2A,F,/ (3:2:2D,^B,,/(3:2:2C,D,/ | F,,2 z F, | (3E,/D,/C,/F,- (3F,/E,/D,/G, | %61
 C, z z F, | CC,- (3C,/D,/E,/(3D,/E,/F,/ | (3E,/F,/G,/F,- (3F,/G,/A,/(3G,/A,/B,/ | %64
 (3A,/G,/F,/G,- (3G,/F,/E,/(3F,/E,/D,/ | (3:2:2E,G,/(3:2:2DG,/ (3:2:2E,D,/(3:2:2E,F,/ | G,4- | %67
 G,4- | G,A, F,^B,, | (3C,/A,,/C,/(3E,/C,/E,/ G,G,, | C,-(3C,/^E,/F,/ (3G,/A,/B,/(3:2:2CC,/ | %71
 C,3 z | z4 | z4 | z4 | z4 | z4 | z4 | z4 | z4 | z2 z G, | C,C- (3C/B,/A,/(3B,/A,/G,/ | %82
 (3A,/G,/F,/G,- (3G,/F,/^E,/(3F,/E,/C,/ | (3^E,/F,/G,/F,- (3F,/G,/A,/(3G,/A,/B,/ | %84
 (3:2:2A,F,/(3:2:2C,F,/ (3:2:2A,B,/(3:2:2A,G,/ | F,2 z A, | G,(3:2:2E,F,/ G,^A,, | B,,2 z B, | %88
 A,(3:2:2F,G,/ A,^B,, | (3:2:2C,2 D, (3:2:2E,F,/(3:2:2G,E,/ | B,B,, D,F, | %91
 (6:4:3A,2 G,/G,/ (3:2:2CF,/(3:2:2E,D,/ | (3:2:2C,2 D, (3E,/F,/G,/(3:2:2F,^B,,/ | %93
 (3C,/D,/E,/(3D,/A,/F,/ (3D,/^E,/F,/-(3:2:2F,E,/ | (3F,/E,/D,/(3E,/G,/C/ (3B,/A,/G,/(3A,/G,/F,/ | %95
 G,E, G,C | (3:2:2B,G,/(3:2:2D,F,/ (3:2:2B,D/(3:2:2CB,/ | ^A,F, A,D | %98
 (3:2:2C^A,/(3:2:2^E,A,/ (3:2:2CE/(3:2:2DC/ | B,B,,- (3B,,/C,/D,/(3C,/D,/E,/ | %100
 (3D,/E,/F,/E,- (3E,/F,/G,/(3F,/G,/A,/ | G,E, G,C | B,4- | B,4- | B,2 z B, | %105
 EE,- (3E,/F,/G,/(3F,/G,/A,/ | (3G,/A,/B,/A,- (3A,/B,/C/(3B,/C/=D/ | %107
 (3C/B,/A,/B,- (3B,/A,/G,/(3A,/G,/F,/ | (3:2:2G,B,/(3:2:2EB,/ (3:2:2G,F,/(3:2:2G,^A,/ | %109
 (3B,/D/C/(3B,/^A,/G,/ (3:2:2=G,^G,/(3:2:2A,F,/ | %110
 (3G,/=G,/^E,/(3G,/D,/G,/ (3^A,/B,/C/(3B,/A,/^G,/ | (3^A,/B,/C/(3B,/D/C/ (3B,/A,/G,/(3=G,/^G,/A,/ | %112
 (3G,/D/B,/(3G,/B,/G,/ (3:2:2D,E,/(3:2:2D,C,/ | %113
 (3:2:2B,,D,/(3:2:2G,D,/ (3:2:2B,,^A,,/(3:2:2B,,C,/ | D,F, D,^B,, | %115
 (3:2:2C,E,/(3:2:2A,E,/ (3:2:2C,B,,/(3:2:2C,D,/ | E,G, E,C, | D,G, A, z | %118
 z/ A,/4G,/4F,/4E,/4D,/4C,/4 ^B,, z | (3z/ F,/C,/(3D,/E,/F,/ (3E,/F,/G,/(3A,/G,/F,/ | E, z z ^B, | %121
 (3C/D/E/(3D/C/E/[K:alto] D/4^E/4F/-F/E/ | D z[K:bass] z F, | C z z C | %124
 (3:2:2B,G,/(3:2:2D,G,/ (3:2:2B,D/(3:2:2CB,/ |[K:tenor] F z z B, | %126
 (3:2:2A,F,/(3:2:2C,F,/ (3:2:2A,C/(3:2:2B,A,/ | E z z A, | %128
 (3:2:2G,E,/(3:2:2B,,E,/ (3:2:2G,B,/(3:2:2A,G,/ | D z[K:bass] z G, | B, z (3:2:2z D,/(3:2:2E,F,/ | %131
 ^B,,2 z (3z/ B,,/A,/ | G,-(3G,/F,/^E,/ F,-(3F,/G,/F,/ | E,-(3E,/D,/C,/ D,-(3D,/E,/D,/ | C,4- | %135
 (3C,/^B,,/^A,,/(3B,,/D,/G,/ (3F,/E,/D,/(3E,/D,/C,/ | (3D,/E,/F,/(3^E,/F,/G,/ F, z | z2 z G, | %138
 CC,- (3C,/D,/^E,/(3D,/E,/F,/ | (3^E,/F,/G,/F,- (3F,/G,/A,/(3G,/A,/B,/ | %140
 (3A,/G,/F,/G,- (3G,/F,/E,/(3F,/E,/D,/ | (3:2:2E,G,/(3:2:2CG,/ (3:2:2E,D,/(3:2:2^E,F,/ | %142
 (3G,/A,/B,/A,- (3A,/B,/C/(3^B,/^A,/G,/ | C3 z |] %144

